X:1
T:Cameron Men's Polka No.2
L:1/8
M:2/4
I:linebreak $
K:A
V:1 treble 
V:1
 Ec c>B | AF F>A | EA A/G/A/B/ | cB B3/2 z/ | Ec c>B | AF F>A | EA B/A/B/c/ | BA A3/2 z/ :|$ %8
 CE E/F/E/D/ | CE E/F/E/D/ | CE Ac | B/A/B/c/ BE | CE E/F/E/D/ | CE E>A | FA GB | cA A3/2 z/ :| %16
